X:2827
T:In the Seileach Gardens
O:england
M:C
L:1/4
Q:50
C:Traditional Celtic Tune
R:Aire/Slow
B:FOUR WINDS MUSIC COLLECTION
K:D
G/2A/2 | B A/2G/2 A B/2d/2 | e2 d g/2d/2 | e d/2B/2 A> G | G3 G/2A/2 |
B A/2G/2 A B/2d/2 | e2 d g/2d/2 | e d/2B/2 A> G | G3 d |
(g f/2e/2) d  B/2d/2 | e> d d B/2d/2 | (g f/2e/2) d B | A3  z  |
G/2A/2 | B A/2G/2 A B/2d/2 | e2 d g/2d/2 | e d/2B/2 A> G |1 G2 z :|2 G2
-G |]
W:Arrangement: Patrick O. Young, 1999.


